X: 448
T:The Hornless Cow
M:2/4
L:1/16
R:Reel
N:Posted to the woodenflute mailing list October 2001
Z:David Migoya
N:Single Reel
K:D
FAAF GFED| FAAc dABG| FGAF G3B| Adfe dBAG| FAAF GFED| FAAc dABG| FGAF G3B|
AFDF E2D2 ||
afdf g2fe| afdf eBB2| afdf g3e| dcde fefg| afdf g2fe| afdf eBB2| defg afbf|
afdf e2d2||

